X: 8145
T: Cook In The Kitchen, The
R: jig
M: 6/8
K: Gmixolydian
DGG GAG|FDE {G}FDC|DGG ABc|dgg ^fdc|
{c}BAB G^FG|FDE F2 d|{d} cAG ^FGA|BGG G2:|
{D}G2 g def|{d}cAF FGA|{D}G2 g def|~edc de^f|
{a}g^fg BAB|~A2 G FGA|{c}BAB {d}cA^F|GAG G2:|

